icons/badge/add/shield.svg

<svg width="32" height="32" viewBox="0 0 32 32" xmlns="http://www.w3.org/2000/svg"><path fill-rule="evenodd" clip-rule="evenodd" d="M15.4808 1.1041C15.821 1.01262 16.1793 1.01262 16.5195 1.1041L28.5195 4.33085C29.393 4.56573 30.0001 5.35769 30.0001 6.26224V12C30.0001 21.4849 23.666 28.3497 16.2748 30.4615L16.0001 30.54L15.7254 30.4615C8.33424 28.3497 2.00012 21.4849 2.00012 12V6.26224C2.00012 5.35769 2.60725 4.56573 3.48078 4.33085L15.4808 1.1041ZM16.0001 3.03549L4.00012 6.26224L4.00012 12C4.00012 20.3968 9.50976 26.4794 16.0001 28.4573C22.4905 26.4794 28.0001 20.3968 28.0001 12L28.0001 6.26224L16.0001 3.03549ZM15 14V8.00001H17V14H23V16H17V22H15V16H9V14H15Z"/></svg>

<svg viewBox="0 0 32 32" xmlns="http://www.w3.org/2000/svg"><path fill-rule="evenodd" d="M15.48 1.104a2 2 0 011.04 0l12 3.227A2 2 0 0130 6.262V12c0 9.485-6.334 16.35-13.725 18.462L16 30.54l-.275-.078C8.335 28.35 2 21.485 2 12V6.262a2 2 0 011.48-1.931l12-3.227zM16 3.035L4 6.262V12c0 8.397 5.51 14.48 12 16.457C22.49 26.48 28 20.397 28 12V6.262L16 3.035zM15 14V8h2v6h6v2h-6v6h-2v-6H9v-2h6z"/></svg>
